www/assets/icons/add_to_drive.svg

<svg width="24" height="24" viewBox="0 0 24 24" xmlns="http://www.w3.org/2000/svg" fill='currentColor'><path d="M19.8475 21V18H22.8475V16H19.8475V13H17.8475V16H14.8475V18H17.8475V21H19.8475ZM14.8775 21.5H5.50752C4.78752 21.5 4.12752 21.12 3.77752 20.5L1.41752 16.4C1.05752 15.78 1.06752 15.02 1.42752 14.4L7.76752 3.49C8.12752 2.88 8.78752 2.5 9.49752 2.5H14.1975C14.9075 2.5 15.5675 2.88 15.9275 3.49L20.4075 11.2C19.9075 11.07 19.3875 11 18.8475 11C18.5675 11 18.2875 11.02 18.0075 11.06L14.1975 4.5H9.49752L3.15752 15.41L5.50752 19.5H13.3975C13.7475 20.27 14.2475 20.95 14.8775 21.5ZM13.1875 15C12.9675 15.63 12.8475 16.3 12.8475 17H7.09752L6.36752 15.73L10.9475 7.75H12.7475L15.2775 12.17C14.7175 12.59 14.2275 13.1 13.8375 13.68L11.8375 10.19L9.09752 15H13.1875Z"/></svg>

<svg xmlns="http://www.w3.org/2000/svg" width="24" height="24" viewBox="0 0 24 24" fill='currentColor'><path d="M19.848 21v-3h3v-2h-3v-3h-2v3h-3v2h3v3zm-4.97.5h-9.37c-.72 0-1.38-.38-1.73-1l-2.36-4.1c-.36-.62-.35-1.38.01-2l6.34-10.91c.36-.61 1.02-.99 1.73-.99h4.7c.71 0 1.37.38 1.73.99l4.48 7.71a6.2 6.2 0 0 0-2.4-.14l-3.81-6.56h-4.7l-6.34 10.91 2.35 4.09h7.89c.35.77.85 1.45 1.48 2m-1.69-6.5c-.22.63-.34 1.3-.34 2h-5.75l-.73-1.27 4.58-7.98h1.8l2.53 4.42c-.56.42-1.05.93-1.44 1.51l-2-3.49L9.098 15z"/></svg>
